!!!!SEGMENT: pl-kk--kk-i-40--010-001_massaino-tiburzio--missa-sagitta-ionathe-kyrie.krn
!!!cenid: 16xx:1314
!!!COM: Massaino, Tiburzio
!!!COM-rismID: pe30005207
!!!CDT: <1550->1608
!!!CNT: Italian
!!!OPR: Missa Sagitta Ionathe
!!!OTL: Kyrie
!!!OMV: 001
!!!PDT:
!!!AGN: Sacred; Mass
!!!SMS-siglum: PL-Kk
!!!SMS-shelfmark: Kk.I.40
!!!SMS-shelfwork: 010-001 M
!!!SMS-variant:
!!!SMS-altvar:
!!!NIFC-rismSourceID: 1001154484
!!!NIFC-rismChildID: 1001154532
!!!NIFC-islandoraID: pl-kk:2717
!!!URL-pdf-islandora: https://repozytorium.nifc.pl/islandora/object/pl-kk%3A2717/datastream/PDF/view
!!!URL-scan: https://polish.musicsources.pl/pl/lokalizacje/galeria/rekopisy/6010 @EN{Scan on Polish Music Sources Website} @PL{Skany w portalu Dziedzictwo Muzyki Polskiej w otwartym dostępie}
!!!ONB-nifc: UWAGA: części Mszy: 1. Kyrie, 2. Et in terra, 3. Sanctus, 4. Benedictus, 5. Agnus Dei. Skan 0013-0014
!!!AIN: 1 empty
!!!key:
**kern	**text
*Iempty	*
*I"Baſso Ripieno.	*
*I'B rip	*
*clefF4	*
*k[b-]	*
*g:	*
*M2/1	*
*met(C|)	*
=1-	=1-
00r	.
=2-	=2-
.	.
=3-	=3-
00r	.
=4-	=4-
.	.
=5-	=5-
!LO:TX:t=P:problem=kreska pseudotaktowa	!
0r	.
=6-	=6-
1GG	Ky-
2.BB-/	-ri-
4C/	-e
=7-	=7-
*2\right	*
2D\	e-
2E-X\	-lei-
!LO:TX:t=P:problem=kreska pseudotaktowa	!
1D,<	-son
=8-	=8-
!LO:TX:t=P:problem=kreska pseudotaktowa	!
00r	.
=9-	=9-
.	.
=10-	=10-
*	*ij
1GG	Ky-
2.BB-/	-ri-
4C/	-e
=11-	=11-
2D\	e-
2E-X\	-lei-
!LO:TX:t=P:problem=kreska pseudotaktowa	!
1D	-son
*	*Xij
=12-	=12-
00r	.
=13-	=13-
.	.
=14-	=14-
!LO:TX:t=P:problem=kreska pseudotaktowa	!
0r	.
=15-	=15-
2.G\	Ky-
4F\	-ri-
2E-X\	-e
2E-\	e-
=16-	=16-
1D	-lei-
!LO:TX:t=P:problem=kreska pseudotaktowa	!
0GG	-son
=17-	=17-
.	.
!LO:TX:t=P:problem=kreska pseudotaktowa	!
0r	.
=18-	=18-
.	.
!LO:LB:g=original	!
*	*ij
2.D/	Ky-
4C/	-ri-
=19-	=19-
2BB-/	-e
2GG/	e-
*lig	*
1BB-	-lei-
=20-	=20-
1AA	.
*Xlig	*
!LO:TX:t=P:problem=kreska pseudotaktowa	!
1D	-son
*	*Xij
=21-	=21-
1.GG	Ky-
2D\	-ri-
=22-	=22-
!LO:TX:t=P:problem=kreska pseudotaktowa	!
1GG	-e
2GG/	e-
1BB-/	-lei-
=23-	=23-
.	.
2C/	.
2.D\	.
4D\	.
=24-	=24-
0GGl;	-son
=25||	=25||
*M2/1	*
*met(C|)	*
00r	.
=26-	=26-
.	.
=27-	=27-
0r	.
=28-	=28-
!LO:TX:t=P:problem=kreska pseudotaktowa	!
1r	.
1GG	Chri-
=29-	=29-
2.GG/	-ste
!LO:TX:t=P:problem=kreska pseudotaktowa	!
4AA/	.
2BB-/	e-
2C/	-lei-
=30-	=30-
!LO:TX:t=P:problem=kreska pseudotaktowa	!
0GG	-son
=31-	=31-
00r	.
=32-	=32-
.	.
=33-	=33-
*	*ij
1GG	Chri-
2.GG/	-ste
!LO:TX:t=P:problem=kreska pseudotaktowa	!
4AA/	.
=34-	=34-
2BB-/	e-
2C/	.
4GG/	-lei-
4AA/	.
4BB-/	.
4C/	.
=35-	=35-
!LO:TX:t=P:problem=kreska pseudotaktowa	!
1D,<	-son
*	*Xij
!LO:TX:t=P:problem=kreska pseudotaktowa	!
00r	.
=36-	=36-
.	.
=37-	=37-
.	.
!LO:LB:g=original	!
1GG	X-
=38-	=38-
2.BB-/	-te
!LO:TX:t=P:problem=kreska pseudotaktowa	!
4C/	.
2D\	e-
2E-X\	-lei-
=39-	=39-
!LO:TX:t=P:problem=kreska pseudotaktowa	!
1D	-son
0r	.
=40-	=40-
.	.
1r	.
=41-	=41-
2r	.
*	*ij
!LO:TX:t=P:problem=kreska pseudotaktowa	!
2BB-/	X-
2.D\	-te
4Eny\	.
=42-	=42-
2F\	e-
2D\	.
*lig	*
1E-X	-lei-
=43-	=43-
1D	.
*Xlig	*
!LO:TX:t=P:problem=kreska pseudotaktowa	!
1GG	-son
*	*Xij
=44-	=44-
0r	.
=45-	=45-
2r	.
!LO:TX:t=P:problem=kreska pseudotaktowa	!
2BB-/	X-
2.F\	-te
4G\	.
=46-	=46-
2A\	e-
2F\	.
1G	-lei-
=47-	=47-
!LO:TX:t=P:problem=kreska pseudotaktowa	!
1D	-son
2r	.
*	*ij
2GG/	X-
=48-	=48-
2.GG/	-te
!LO:TX:t=P:problem=kreska pseudotaktowa	!
4AA/	.
2BB-/	e-
2GG/	-lei-
=49-	=49-
0Dl;	-son
*	*Xij
=50||	=50||
*M2/1	*
*met(C|)	*
0r	.
=51-	=51-
1r	.
1GG	Ky-
=52-	=52-
2.BB-/	-ri-
4BB-/	-e
2.AA/	e-
4AA/	-lei-
=53-	=53-
!LO:TX:t=P:problem=kreska pseudotaktowa	!
0GG	-son
=54-	=54-
*custos:G	*
!LO:TX:t=P:problem=kreska pseudotaktowa	!
00r	.
=55-	=55-
.	.
!LO:LB:g=original	!
=56-	=56-
1G	Ky-
2.B-\	-ri-
4B-\	-e
=57-	=57-
2.A\	e-
4A\	-lei-
2G,<\	-son
*	*ij
2.GG/	Ky-
=58-	=58-
.	.
4AA/	.
4BB-/	-ri-
4GG/	.
1D	-e
=59-	=59-
!LO:TX:t=P:problem=kreska pseudotaktowa	!
1E-X	e-
2D/	-lei-
2BB-/	.
=60-	=60-
2C/	.
2D\	.
!LO:TX:t=P:problem=kreska pseudotaktowa	!
0GG	-son
*	*Xij
=61-	=61-
.	.
!LO:TX:t=P:problem=kreska pseudotaktowa	!
00r	.
=62-	=62-
0r	.
=63-	=63-
.	.
1.G	Ky-
=64-	=64-
.	.
!LO:TX:t=P:problem=kreska pseudotaktowa	!
2GG/	-ri-
2C/	-e
2F\	e-
=65-	=65-
4BB-/	.
4AA/	.
4GG/	.
4AA/	.
4BB-/	.
4C/	.
4D/	.
!LO:TX:t=P:problem=kreska pseudotaktowa	!
4Eny/	.
=66-	=66-
2F\	-lei-
2G\	.
1F	.
=67-	=67-
!LO:TX:t=P:problem=kreska pseudotaktowa	!
0BB-	-son
=68-	=68-
1r	.
2r	.
*	*ij
2BB-/	Ky-
=69-	=69-
2.D/	-ri-
4D/	-e
2.C/	e-
4C/	-lei-
=70-	=70-
2BB-/	.
2GG/	.
1D	.
=71-	=71-
!LO:TX:t=P:problem=kreska pseudotaktowa	!
0GG	-son
*	*Xij
=72-	=72-
2r	.
2D/	Ky-
1GG	-ri-
=73-	=73-
1.C	-e [e]-
2C/	-lei-
=74-	=74-
0GGl;	-son
==	==
*-	*-
!!!RDF**kern: < = below
!!!RDF**kern: l = terminal long
!!!ENC: Andrzej Kubiczek
!!!END: 2021-08-02
!!!ENC: Mateusz Solarz
!!!END: 2021-07-05
!!!YEC: Copyright 2022 Narodowy Instytut Fryderyka Chopina (https://polishscores.org)
!!!YEM: License CC-BY-4.0 (https://creativecommons.org/licenses/by/4.0)
